src/assets/duotone/Convert3dCube.svg

<?xml version="1.0" encoding="UTF-8"?>
<svg width="24" height="24" viewBox="0 0 24 24" xmlns="http://www.w3.org/2000/svg">
 <path d="m15 22.75c-0.27 0-0.52-0.15-0.65-0.38s-0.13-0.52 0.01-0.75l1.05-1.75c0.21-0.36 0.67-0.47 1.03-0.26s0.47 0.67 0.26 1.03l-0.27 0.45c2.76-0.65 4.83-3.13 4.83-6.09 0-0.41 0.34-0.75 0.75-0.75s0.75 0.34 0.75 0.75c-0.01 4.27-3.49 7.75-7.76 7.75z" opacity=".4"/>
 <path d="m2 9.75c-0.41 0-0.75-0.34-0.75-0.75 0-4.27 3.48-7.75 7.75-7.75 0.27 0 0.51999 0.15 0.64999 0.38s0.13001 0.52-0.00999 0.75l-1.05 1.75c-0.21 0.36001-0.67 0.47001-1.03 0.26001s-0.47-0.67002-0.26-1.03l0.27001-0.45002c-2.76 0.65-4.83 3.13-4.83 6.09 0.01 0.41-0.33001 0.75-0.74001 0.75z" opacity=".4"/>
 <path d="m10.67 13.85-3.14-1.69c-0.33-0.18-0.73-0.18-1.06 0l-3.14 1.69c-0.23 0.12-0.36999 0.37-0.36999 0.64s0.13999 0.52 0.36999 0.64l3.14 1.69c0.17 0.09 0.35 0.13 0.53 0.13s0.36-0.04 0.53-0.13l3.14-1.69c0.23-0.12 0.37-0.37 0.37-0.64s-0.15-0.51-0.37-0.64z"/>
 <path d="m5.9502 17.41-2.92-1.4599c-0.22-0.11-0.48-0.1001-0.7 0.0299-0.21 0.13-0.34 0.3601-0.34 0.6101v2.7599c0 0.48 0.25999 0.91 0.68999 1.12l2.92 1.46c0.1 0.05 0.21 0.08 0.32 0.08 0.13 0 0.26-0.0399 0.38-0.1099 0.21-0.13 0.34-0.3601 0.34-0.6101v-2.7599c0.01-0.48-0.26-0.9101-0.69-1.1201z"/>
 <path d="m11.66 15.98c-0.21-0.13-0.47-0.1399-0.7-0.0299l-2.92 1.4599c-0.43 0.21-0.68998 0.6401-0.68998 1.1201v2.7599c0 0.25 0.12999 0.4801 0.33999 0.6101 0.12 0.07 0.25001 0.1099 0.38001 0.1099 0.11 0 0.21999-0.03 0.31999-0.08l2.92-1.46c0.43-0.21 0.69-0.64 0.69-1.12v-2.7599c0-0.25-0.13-0.4801-0.34-0.6101z"/>
 <path d="m20.67 3.8299-3.14-1.69c-0.33-0.18-0.73-0.18-1.06 0l-3.14 1.69c-0.23 0.12-0.37 0.36995-0.37 0.63995s0.14 0.52001 0.37 0.64001l3.14 1.69c0.17 0.09 0.35 0.13 0.53 0.13s0.36-0.04 0.53-0.13l3.14-1.69c0.23-0.12 0.37-0.37001 0.37-0.64001 0-0.28-0.15-0.51995-0.37-0.63995z"/>
 <path d="m15.95 7.3799-2.92-1.46c-0.22-0.11-0.48-0.09997-0.7 0.03003-0.21 0.13-0.34 0.35999-0.34 0.60999v2.76c0 0.48 0.26 0.91003 0.69 1.12l2.92 1.46c0.1 0.05 0.21 0.0799 0.32 0.0799 0.13 0 0.26-0.0399 0.38-0.1099 0.21-0.13 0.34-0.36 0.34-0.61v-2.76c0.01-0.48-0.26-0.91-0.69-1.12z"/>
 <path d="m21.66 5.9499c-0.21-0.13-0.47-0.14003-0.7-0.03003l-2.92 1.46c-0.43 0.21-0.69 0.64-0.69 1.12v2.76c0 0.25 0.13 0.48 0.34 0.61 0.12 0.07 0.25 0.1099 0.38 0.1099 0.11 0 0.22-0.0299 0.32-0.0799l2.92-1.46c0.43-0.21 0.69-0.64003 0.69-1.12v-2.76c0-0.25-0.13-0.47999-0.34-0.60999z"/>
</svg>

<svg width="24" height="24" viewBox="0 0 24 24"  xmlns="http://www.w3.org/2000/svg">
<path opacity="0.4" d="M15.0002 22.75C14.7302 22.75 14.4802 22.6 14.3502 22.37C14.2202 22.14 14.2202 21.85 14.3602 21.62L15.4102 19.87C15.6202 19.51 16.0802 19.4 16.4402 19.61C16.8002 19.82 16.9102 20.28 16.7002 20.64L16.4302 21.09C19.1902 20.44 21.2602 17.96 21.2602 15C21.2602 14.59 21.6002 14.25 22.0102 14.25C22.4202 14.25 22.7602 14.59 22.7602 15C22.7502 19.27 19.2702 22.75 15.0002 22.75Z" />
<path opacity="0.4" d="M2 9.75C1.59 9.75 1.25 9.41 1.25 9C1.25 4.73 4.73 1.25 9 1.25C9.27 1.25 9.51999 1.4 9.64999 1.63C9.77999 1.86 9.78 2.15 9.64 2.38L8.59 4.13C8.38 4.49001 7.92 4.60001 7.56 4.39001C7.2 4.18001 7.09 3.71999 7.3 3.35999L7.57001 2.90997C4.81001 3.55997 2.74001 6.04 2.74001 9C2.75001 9.41 2.41 9.75 2 9.75Z" />
<path d="M10.6704 13.8499L7.53044 12.1599C7.20044 11.9799 6.80044 11.9799 6.47044 12.1599L3.33044 13.8499C3.10044 13.9699 2.96045 14.2199 2.96045 14.4899C2.96045 14.7599 3.10044 15.0099 3.33044 15.1299L6.47044 16.8199C6.64044 16.9099 6.82044 16.9499 7.00044 16.9499C7.18044 16.9499 7.36044 16.9099 7.53044 16.8199L10.6704 15.1299C10.9004 15.0099 11.0404 14.7599 11.0404 14.4899C11.0404 14.2199 10.8904 13.9799 10.6704 13.8499Z" />
<path d="M5.95023 17.4101L3.03023 15.9502C2.81023 15.8402 2.55023 15.8501 2.33023 15.9801C2.12023 16.1101 1.99023 16.3402 1.99023 16.5902V19.3501C1.99023 19.8301 2.25022 20.2601 2.68022 20.4701L5.60023 21.9301C5.70023 21.9801 5.81023 22.0101 5.92023 22.0101C6.05023 22.0101 6.18023 21.9702 6.30023 21.9002C6.51023 21.7702 6.64023 21.5401 6.64023 21.2901V18.5302C6.65023 18.0502 6.38023 17.6201 5.95023 17.4101Z" />
<path d="M11.6601 15.9801C11.4501 15.8501 11.1901 15.8402 10.9601 15.9502L8.04008 17.4101C7.61008 17.6201 7.3501 18.0502 7.3501 18.5302V21.2901C7.3501 21.5401 7.48009 21.7702 7.69009 21.9002C7.81009 21.9702 7.9401 22.0101 8.0701 22.0101C8.1801 22.0101 8.29009 21.9801 8.39009 21.9301L11.3101 20.4701C11.7401 20.2601 12.0001 19.8301 12.0001 19.3501V16.5902C12.0001 16.3402 11.8701 16.1101 11.6601 15.9801Z" />
<path d="M20.6704 3.82989L17.5304 2.13988C17.2004 1.95988 16.8004 1.95988 16.4704 2.13988L13.3304 3.82989C13.1004 3.94989 12.9604 4.19984 12.9604 4.46984C12.9604 4.73984 13.1004 4.98985 13.3304 5.10985L16.4704 6.79986C16.6404 6.88986 16.8204 6.92986 17.0004 6.92986C17.1804 6.92986 17.3604 6.88986 17.5304 6.79986L20.6704 5.10985C20.9004 4.98985 21.0404 4.73984 21.0404 4.46984C21.0404 4.18984 20.8904 3.94989 20.6704 3.82989Z" />
<path d="M15.9502 7.37987L13.0302 5.91985C12.8102 5.80985 12.5502 5.81988 12.3302 5.94988C12.1202 6.07988 11.9902 6.30987 11.9902 6.55987V9.31987C11.9902 9.79987 12.2502 10.2299 12.6802 10.4399L15.6002 11.8999C15.7002 11.9499 15.8102 11.9798 15.9202 11.9798C16.0502 11.9798 16.1802 11.9399 16.3002 11.8699C16.5102 11.7399 16.6402 11.5099 16.6402 11.2599V8.49987C16.6502 8.01987 16.3802 7.58987 15.9502 7.37987Z" />
<path d="M21.6601 5.94988C21.4501 5.81988 21.1901 5.80985 20.9601 5.91985L18.0401 7.37987C17.6101 7.58987 17.3501 8.01987 17.3501 8.49987V11.2599C17.3501 11.5099 17.4801 11.7399 17.6901 11.8699C17.8101 11.9399 17.9401 11.9798 18.0701 11.9798C18.1801 11.9798 18.2901 11.9499 18.3901 11.8999L21.3101 10.4399C21.7401 10.2299 22.0001 9.79987 22.0001 9.31987V6.55987C22.0001 6.30987 21.8701 6.07988 21.6601 5.94988Z" />
</svg>
